!!!COM: Palestrina, Giovanni Perluigi da
!!!OPR: Missa Hodie Christus Natus Est
!!!OMD: Sanctus
!!!OTL: Pleni
**kern	**kern	**kern	**kern
*Ibass	*Icalto	*Icant	*Icant
!Bassus	!Altus	!Cantus 2	!Cantus 1
*clefF4	*clefG2	*clefG2	*clefG2
*k[]	*k[]	*k[]	*k[]
*G:mix	*G:mix	*G:mix	*G:mix
*M4/2	*M4/2	*M4/2	*M4/2
=36	=36	=36	=36
0r	0r	0r	1cc
.	.	.	2ee
.	.	.	2ee
=37	=37	=37	=37
0r	0r	0r	1ff
.	.	.	2gg
.	.	.	2gg
=38	=38	=38	=38
0r	0r	1cc	4gg
.	.	.	4ff
.	.	.	4ee
.	.	.	4dd
.	.	2ee	4cc
.	.	.	4b
.	.	2ee	4a
.	.	.	4g
=39	=39	=39	=39
0r	0r	1ff	1a
.	.	2gg	2g
.	.	2gg	2b
=40	=40	=40	=40
0r	1c	4gg	1cc
.	.	4ff	.
.	.	4ee	.
.	.	4dd	.
.	2e	4cc	1g
.	.	4b	.
.	2e	4b	.
.	.	8a	.
.	.	8g	.
=41	=41	=41	=41
0r	1f	1a	2r
.	.	.	2dd
.	2g	4g	2dd
.	.	4a	.
.	2g	4b	2dd
.	.	4cc	.
=42	=42	=42	=42
0r	4g	2dd	1b
.	4f	.	.
.	4e	2.ee	.
.	4d	.	.
.	4c	.	2cc
.	4B	4dd	.
.	4A	4cc	2ee
.	4G	4b	.
=43	=43	=43	=43
1r	1A	4a	4ee
.	.	4b	4dd
.	.	1cc	4ee
.	.	.	4cc
2r	1G	.	1dd
2G	.	2b	.
=44	=44	=44	=44
2A	2r	2cc	1cc
2A	2c	2ee	.
1B	2d	1dd	2r
.	2d	.	2g
=45	=45	=45	=45
2c	1e	2r	2g
2c	.	2cc	2g
4c	2e	2ee	1cc
4B	.	.	.
4A	2c	2ee	.
4G	.	.	.
=46	=46	=46	=46
4F	4d	1ff	2a
4E	4c	.	.
4D	1c	.	2a
4C	.	.	.
1D	.	1ff	2.f
.	2B	.	.
.	.	.	4g
=47	=47	=47	=47
1C	1c	1ee	4a
.	.	.	4b
.	.	.	1cc
1r	2r	1dd	.
.	[2g	.	2b
=48	=48	=48	=48
1c	2g]	2.ee	1cc
.	2e	.	.
.	.	4dd	.
2A	2f	2cc	1r
2B	[2g	4b	.
.	.	4a	.
=49	=49	=49	=49
2.c	4g]	1g	0r
.	4f	.	.
.	4e	.	.
4B	4d	.	.
4A	2e	1r	.
4G	.	.	.
[2A	[2f	.	.
=50	=50	=50	=50
4A]	4f]	1r	1cc
4G	4e	.	.
2E	1e	.	.
2F	.	2r	2a
2G	2d	[2gg	2b
=51	=51	=51	=51
1C	2e	2gg]	2.cc
.	2cc	2ee	.
.	.	.	4b
1r	2a	2ff	2cc
.	2b	[2gg	2dd
=52	=52	=52	=52
0r	2.cc	4gg]	0ee
.	.	4ff	.
.	.	4ee	.
.	4b	4dd	.
.	4a	4cc	.
.	4g	4b	.
.	2a	2cc	.
=53	=53	=53	=53
0r	2f	2dd	2r
.	2e	1ee	2gg
.	2a	.	2ee
.	2a	4dd	2ff
.	.	4cc	.
=54	=54	=54	=54
0r	1g	2b	2.gg
.	.	2b	.
.	.	.	4ff
.	2.c	2cc	4ee
.	.	.	4dd
.	.	[2gg	[2ee
.	4d	.	.
=55	=55	=55	=55
0r	4e	4gg]	4ee]
.	4f	4ff	4dd
.	2g	2dd	2b
.	2c	1ee	1cc
.	[2cc	.	.
=56	=56	=56	=56
1r	2cc]	2.dd	1g
.	2b	.	.
.	.	4ee	.
2r	2a	4ff	[1cc
.	.	4ee	.
2c	2g	[2ee	.
=57	=57	=57	=57
2A	1f	2ee]	2cc]
2B	.	2dd	2b
2.c	[1e	1ee	1g
4B	.	.	.
=58	=58	=58	=58
4A	1e]	2r	2.a
4G	.	.	.
2.A	.	2cc	.
.	.	.	4b
.	2r	2a	4cc
4G	.	.	4dd
2E	2g	2b	[2ee
=59	=59	=59	=59
1A	2e	1.cc	2ee]
.	2f	.	4dd
.	.	.	4cc
1G	2.g	.	2ee
.	.	4b	2dd
.	4f	4a	.
=60	=60	=60	=60
0r	4e	2.b	2r
.	4d	.	.
.	2e	.	2gg
.	.	4g	.
.	2c	1a	2ee
.	2d	.	2ff
=61	=61	=61	=61
1C	2e	1g	2.gg
.	2e	.	.
.	.	.	4ff
2C	2.g	1r	4ee
.	.	.	4dd
4C	.	.	[2ee
4D	4f	.	.
=62	=62	=62	=62
4E	2e	0g	4ee]
4F	.	.	4dd
2G	2d	.	2b
1C	1e	.	1cc
=63	=63	=63	=63
0G	0d	0g	0b
*-	*-	*-	*-
!!!CDT: 1525/^1526/-1594/2/2
!!!OCY: Italia
!!!AGN: Mass (Parody)
!!!AST: renaissance, vocal
!!!ASW: Motet 1575 (Palestrina)
!!!PWK: Masses, Book 8vce
!!!RNB: Cadence finals: C,D
!!!YOR: Le Opere Complete, v. 30, p. 59
!!!YOO: Rome, Italy: Fratelli Scalera
!!!END: 1992//
!!!EED: John Miller
!!!YEC: Copyright 2000, John Miller
!!!YEN: United States of America
!!!YEM: Rights to all derivative electronic formats reserved.
!!!YEM: Refer to licensing agreement for further details.
!!!YEM: This file must be accompanied by the licensing agreement.
!!!YEM: A copy of the licensing agreement may be found at http://www.music-cog.ohio-state.edu/HumdrumDatabases/Palestrina/license.txt
!!!EMD: converted to Humdrum by Bret Aarden
